X:1
T:Title
%%score { 1 | 2 }
L:1/8
M:3/4
K:Eb
V:1 treble nm="Grand Piano"
V:2 bass 
V:1
 z2 z2[Q:1/4=100] [EG][FA] | [GB]3 G BG | E2 G2 [DF][DG] | [DA]3 [DF] [EG][FA] |[M:2/4] [GB]4 | %5
[M:1/4] [EG][FA] |[M:3/4] [GB]3 G BG | E2 G2 [DF][DG] | [DA]3 [DF] CD |[M:2/4] E4 | %10
[M:1/4] [GB][GB] |[M:3/4] c2 e2 cc | [GB]2 [EG]2 [GB][GB] | c2 e2 dc |[M:2/4] [DB]4 | %15
[M:1/4] [EG][FA] |[M:3/4] [GB]3 G BG | E2 G2 [DF][DG] | [DA]3 [DF] CD |[M:6/4] .E6 z6 |] %20
V:2
 z2 z2 [E,B,][D,B,] | [E,E]3 [E,B,E] [E,G,E][E,B,E] | [E,G,B,]2 [E,B,E]2 [B,,A,][B,,G,] | %3
 [B,,F,]3 [B,,B,] [E,B,][E,B,] |[M:2/4] [E,E]4 |[M:1/4] [E,B,][E,B,] | %6
[M:3/4] [E,E]3 [E,B,E] [E,G,E][E,B,E] | [E,G,B,]2 [E,B,E]2 [B,,B,][B,,B,] | %8
 [B,,B,]3 [B,,B,] [B,,A,][B,,F,B,] |[M:2/4] [E,G,B,]4 |[M:1/4] [E,E][E,E] | %11
[M:3/4][K:treble] [A,EA]2 [A,CA]2 [A,EA][A,EA] | [E,E]2 [E,B,]2 [E,E][E,E] | %13
 [A,EA]2 [=A,CF]2 [B,F][K:bass][F,A,E] |[M:2/4] [B,,B,]4 |[M:1/4] [E,B,][E,B,] | %16
[M:3/4] [E,E]3 [E,B,E] [E,G,E][E,B,E] | [E,G,B,]2 [E,B,E]2 [B,,B,][B,,B,] | %18
 [B,,B,]3 [B,,B,] [B,,A,][B,,F,B,] |[M:6/4] .[E,G,B,]6 z6 |] %20

